X:1
T:B minor Samuel Holyoke, 1804
T:Isaac Watts, 1707 (Hymn 106, Book 1)            66. 86. (S. M.) 
T:Hartfield Transcribed from The Christian Harmonist, 1804.
%%score [ 1 2 3 4 ]
L:1/8
Q:1/4=120
M:2/2
K:D
V:1 treble nm="Treble" snm="Tr."
V:2 treble nm="Counter" snm="C."
V:3 treble-8 nm="Tenor" snm="T."
V:4 bass nm="Bass" snm="B."
V:1
"^2. For – bid ______   it,     mighty      God! _____   Nor   let _________  it      e'er    be   said,                                               That we whose sins, That""^3. We      will _____    be     slaves no more, _____  Since Christ ____ has   made us   free;                                               Has nailed our ty –rants,""^1. Shall  we _______   go     on    to       sin _______   Be  – cause _____  thy  grace abounds?                                                          Or    crucify,   Or" d8 | %1
 (B3 c d2) c2 | B4 ^A4 | B8- | B4 ^A4 | (B3 c d2) e2 | f4 c4 | d6 z2 | z8 | z4 z2 c2 | %10
 f2 f2 f2 d2 | %11
"^crucify       the   Lord             a      –    gain,   And o  – pen  all    his  wounds?  And o       –       pen   all ________ his wounds?""^we shose sins are cru    –     ci     –    fied   Should raise them from the dead, Should raise    them from _______  the  dead.""^nailed our tyrants to             his        cross,  And  bought  our  li  –  ber – ty,   And bought ___ our   li         –         ber – ty." c2 c2 c2 c2 | %12
 d4 (c3 B) | ^A6 d2 | e2 dc d2 cB | ^A6 A2 | (B3 c d2) e2 | (d3 c B2) ^A2 | B8 |] %19
V:2
 F8 | F6 G2 | F4 F4 | F8 | z4 F4 | F6 A2 | A4 A4 | A6 z2 | z8 | z8 | z4 z2"^Or""^That""^Has" F2 | %11
 A2 A2 A2 ^A2 | (B3 A) ^G4 | F6 z2 | z8 | z4 z2 F2 | F2 B4 B2 | B2 F4 F2 | F8 |] %19
V:3
"^1. Shall  we _______   go     on    to       sin _______   Be  – cause _____  thy  grace abounds?                                Or  crucify  the  Lord again, Or""^2. For – bid ______   it,     mighty      God! _____   Nor   let _________  it      e'er    be   said,                      That we whose sins are crucified, That""^3. We      will _____    be     slaves no more, _____  Since Christ ____ has   made us   free;                    Has nailed our tyrants to his cross, Has" B8 | %1
 (d3 e f2) e2 | d4 c4 | B8 | z4 c4 | (d3 c B2) c2 | d4 e4 | f6 z2 | z4 z2 B2 | f2 f2 f2 e2 | %10
 d2 d2 d2 d2 | %11
"^crucify       the   Lord             a      –    gain,   And o  – pen  all    his  wounds?  And o       –       pen   all ________ his wounds?""^we shose sins are cru    –     ci     –    fied   Should raise them from the dead, Should raise    them from _______  the  dead.""^nailed our tyrants to             his        cross,  And  bought  our  li  –  ber – ty,   And bought ___ our   li         –         ber – ty." e2 e2 e2 f2 | %12
 f4 ^e4 | f6 f2 | g2 fe f2 ed | c6 c2 | (d3 e f2) g2 | (f3 e d2) c2 | B8 |] %19
V:4
 B,8 | B,6 A,2 | B,4 F,4 | B,,8- | B,,4 F,4 | B,6 A,G, | F,4 A,4 | %7
 D,6"^Or     crucify   the  Lord    a     –     gain,         Or""^That we whose sins are cru–ci –  fied,         That""^Has nailed our tyrants to  his      cross,         Has" F,2 | %8
 B,2 B,2 B,2 G,2 | F,4 A,4 | D,6 D,2 | A,2 A,2 A,2 F,2 | B,4 C4 | F,6 z2 | %14
"^_____________________________________________________________\nEdited by B. C. Johnston, 2016\nThese words substituted for original words: John Fawcett, 1782, Blest be the tie that binds." z8 | %15
 z4 z2 F,2 | B,6 E,2 | F,6 F,2 | B,,8 |] %19

